X:1
T:C Major Alexander Johnson, 1818 As arranged in Southern Harmony , 1835 Alto from Christian Harmony, 1866
T:Isaac Watts, 1717 (Psalm 92, Part 1)      88. 88. (L. M.)
T:Devotion
T:Transcribed from Christian Harmony, 1866
%%score [ 1 2 3 4 ]
L:1/8
Q:1/4=120
M:4/4
K:C
V:1 treble nm="Tr." snm="Tr."
V:2 treble nm="A." snm="A."
V:3 treble-8 nm="T." snm="T."
V:4 bass nm="B." snm="B."
V:1
"^1.  Sweet  is  the  day    of    sacred     rest,      No     mor – tal   cares  shall  seize  my   breast;         O   may  my   heart  in   tune   be    found,   Like   David's   harp   of   solemn   sound!\n2.  Sweet  is  the  work,  my God,  my King,      To     praise   thy  name,  give thanks and    sing,          To  show thy   love    by  mor – ning  light,   And   talk  of    all    thy   truth  at  night." c4 e2 e2 | %1
 d4 B4 | c2 A2 G4 | G4 A2 B2 | A4 c4 | d2 d2 e4- | e4 g4 | e2 c2 B4 | c4 A2 A2 | G4 E4 | A2 A2 c4 | %11
 B4 A2 G2 | G4- G4 |] %13
V:2
"^3.  My  heart  shall  triumph   in  my  Lord,     And   bless   his   works,   and   bless   his   word;        Thy works of grace, how bright they shine! How  deep   thy   counsels!  how  di–vine!\n4.  Fools never raise their thoughts so high;   Like  brutes  they   live,    like   brutes  they  die;          Like  grass  they  flourish,  till  thy  breath  Blast  them  in    ev –er –las –ting  death." E4 E2 G2 | %1
 A4 G4 | D2 CD E4 | D4 C2 CD | E4 F4 | G2 A2 G4- | G4 E4 | A2 A2 G4 | E4 A2 A2 | G4 G4 | F2 C2 E4 | %11
 G4 A2 G2 | E4- E4 |] %13
V:3
"^5.  But   I   shall   share   a    glorious    part    When  grace  hath   well  re–fined    my     heart;          And   fresh  sup–plies  of   joy   are    shed,   Like  ho – ly  oil,      to  cheer  my head.\n6.  Sin,  my  worst  en – e – my   be – fore,    Shall    vex    my    eyes   and    ears   no   more;           My    in–ward   foes  shall   all   be    slain,   Nor  Sa–tan  break  my  peace  a – gain." G4 A2 c2 | %1
 A4 G4 | A2 c2 c4 | G4 c2 d2 | e4 c4 | d2 A2 c4- | c4 c4 | e2 e2 d4 | A4 c2 A2 | G4 G4 | A2 c2 A4 | %11
 G4 A2 c2 | c4- c4 |] %13
V:4
"^7.  Then  shall  I  see,  and  hear,  and   know      All      I      de  –  sired    or   wished  be  – low;           And   eve–ry  power find  sweet em–ploy   In    that   e – ter  –  nal  world   of    joy.""^_____________________________________________\nDevotion\n is a folk hymn, first printed in Alexander Johnson, 1818, appearing in over 25 nineteenth-century tunebooks.\nThe tune \"is a pentatonic Ionian melody\" (Music 2005)" C,4 E,2 C,2 | %1
 D,4 G,4 | A,2 G,2 C,4 | C,4 E,2 G,2 | A,4 F,4 | G,2 E,D, C,4- | C,4 G,4 | A,2 A,2 G,4 | %8
 C4 F,2 C,2 | G,4 C,4 | D,2 F,2 E,4 | G,4 A,2 G,2 | C,4- C,4 |] %13

